X: 27272
T: Miss Tara MacAdam
R: jig
M: 6/8
K: Gmajor
|:DC|B,/C/DG, B,DG,|CEG GEC|D/F/AD FAD|GBe d2c|
B>GD B,/C/DA,/B,/|CEG GEC|DFA cBA|GFA G:|
|:zB|e^d/e/f/d/ eB=d|^cA=c BEG|FBB GBB|^d/e/fd B2B|
e^d/e/f/d/ eB=d|^cA=c BEG|FBB ^d/e/fd|BAF E:|

